X: 750
T: Tower Waits Hornpipe
M:3/2
L:1/8
S: 8: MCJLSH3 http://www.cpartington.plus.com/links/Walsh.abc
Z: Pete Stewart 2004
B: Walsh "Third Book of the most Celebrated jiggs, Lancashire hornpipes, ..."
K:Gm
g4bag^fg4 | edcB AGFE DCB,A, | B4GFEDE2G2 | cded cABc ^F2D2 |
g4bag^fg4 | edcB AGFE DCB,A, | B,2G2A,2G2G,2^F2 | GEDC B,GA,^FG,4 ||
f4dBcA BFGE | E2C2E2G2c4 | g4ecdB cABG | ^F2D2F2A2d4 |
d2b2BAGFE2C2 | c2a2AGFED2B,2 | G,2g2^fdec dAB^F | GEDC B,GA,^FG,4 ||

%%sep 1 1 500
%%sep 1 1 500
